svg/u1f982.svg

<svg viewBox="0 0 128 128" xmlns="http://www.w3.org/2000/svg">
  <path d="M73.52,51.41c-4.5-0.15-13.81,2.7-13.81,2.7s-2.4-6.23-4.2-8.03c-1.8-1.8-8.26-2.78-8.71-1.43 c-0.45,1.35,4.2,2.85,6.01,5.56s4.05,6.16,3.15,7.06s-2.18-1.2-6.31-3.6c-4.18-2.43-4.95-2.1-5.86-1.95 c-0.9,0.15-7.13,3.98-9.38,4.58c-2.25,0.6-9.91,0.3-9.83,1.58c0.06,1.06,4.31,2.7,8.11,2.55c3.83-0.15,8.11-3.3,11.71-2.85 c3.6,0.45,7.36,4.2,6.16,4.95c-1.2,0.75-3.53-2.03-5.33-2.33s-6.83,2.63-9.53,2.93c-2.7,0.3-9.91-0.45-10.06,0.6 c-0.15,1.05,4.5,3,9.76,2.85c5.25-0.15,7.66-1.58,9.61-1.28c1.95,0.3,4.95,4.43,4.95,4.43l0.15,4.2l-3,0.3c0,0-1.5-2.85-4.65-3.3 c-3.15-0.45-5.1,0.75-5.1,0.75s-3.3-3.3-7.21-3.6c-3.9-0.3-8.41,1.2-9.61,3.15s-5.25,31.53-5.25,31.53s9.16,13.14,10.06,13.44 c0.9,0.3,2.36-0.1,2.63-1.13c0.38-1.43-1.73-5.25-2.03-7.81c-0.3-2.55-1.05-10.06-1.05-10.06l-3.6-10.81l9.01-1.65 c0,0,2.91,0.06,4.65-0.45c1.8-0.53,3.6-2.4,3.6-2.4s2.7,2.55,6.16,3.45S54,84.59,54,84.59l12.76,3.3c0,0,9.23,2.48,13.51,1.65 c2.29-0.44,4.05-1.5,4.05-1.5s0.45,3,2.1,4.2c1.65,1.2,0.45,20.42,0.45,20.42s-1.35,4.65-4.35,6.46c-3,1.8-7.19,4.12-6.76,5.56 c0.53,1.73,3.38,0.9,3.38,0.9l14.34-6.61l8.56-26.42c0,0,0.75-5.4-2.55-8.71s-6.76-2.25-6.76-2.25s-0.08-1.28-0.53-1.88 c-0.45-0.6-1.88-1.13-1.88-1.13s4.5-2.25,5.48-2.4c3.12-0.48,8.05,5.56,10.88,7.36c2.85,1.8,9.12,5.11,8.71,2.55 c-0.38-2.33-1.8-1.8-6.61-6.01s-9.91-10.06-11.56-10.21c-1.65-0.15-9.76,4.95-10.06,3.15c-0.3-1.8,1.88-3.38,3.9-5.56 c2.03-2.18,3.6-4.2,4.95-4.05c1.35,0.15,6.01,4.95,8.11,6.31c2.1,1.35,10.81,6.31,9.91,2.7c-0.55-2.19-4.2-2.1-8.86-6.61 c-4.65-4.5-8.26-9.31-10.21-9.46c-1.95-0.15-8.18,7.66-8.18,7.66s3.6-6.31,4.65-7.51s2.93-3.6,2.93-3.6s3.75,1.5,5.86,1.2 c2.1-0.3,4.95-1.2,4.95-2.25c0-1.05-3.75-1.05-5.25-1.35c-1.5-0.3-5.25-2.4-6.16-2.4s-3.11,2.3-3.9,3.3 c-1.13,1.43-5.48,6.23-5.48,6.23L73.52,51.41z" fill="#BA8855"/>
  <path d="M29.38,72.08c-3.51-3.08-13.71-2.6-17.42,11.01s0.65,22.12,4.5,27.17c3.3,4.33,8.21,6.66,9.91,5.96 c1.37-0.56-3.8-6.81-5-9.81c-0.99-2.48-1.2-8.12-0.3-8.01c1.6,0.2,4.9,8.11,8.31,10.21c2.08,1.28,3.5,1.9,4.2,1.8 c1.05-0.15-1.9-5.81-4.5-10.31s-4.1-6.86-3.9-7.26c0.2-0.4,4.99-5.38,5.71-6.61C31.93,84.44,35.18,77.19,29.38,72.08z" fill="#F2A159"/>
  <path d="M38.99,73.41c-1.73,1.5-0.83,4.5,0.38,5.78s3.68,2.93,5.18,1.58c1.5-1.35,0.98-3.98-0.98-6.08 C42.19,73.21,40.13,72.41,38.99,73.41z" fill="#F2A159"/>
  <path d="M94.54,87.22c-4.49-0.37-7.66,2.18-9.31,7.13s-0.23,10.21-0.45,10.81c-0.23,0.6-4.04,3.17-5.56,4.2 c-2.4,1.65-6.01,4.35-4.5,5.56c2.36,1.89,6.86,0.17,8.56-0.45c3.9-1.43,5.52-3.29,7.06-2.7c3.15,1.2-1.73,6.23-4.05,7.88 c-2.19,1.56-10.43,4.5-9.98,5.56c0.45,1.05,2.63,0.98,5.1,0.68c2.48-0.3,12.39-3.75,16.74-8.86c3.98-4.67,5.56-10.96,5.25-16.67 C103.15,95.77,102.8,87.9,94.54,87.22z" fill="#F2A159"/>
  <path d="M84.85,80.32c1.28,0,3,0.29,3.23,1.88c0.3,2.1-2.03,3-3.3,3c-0.75,0-3.45-0.15-3.45-2.25 C81.33,80.84,83.58,80.32,84.85,80.32z" fill="#F2A159"/>
  <path d="M58.58,57.49c-1.55,2.01-9.77,9.65-11.04,15.84c-1.28,6.23,0.25,13.79,13.21,18.11 c10.98,3.66,19.15-2.25,21.4-7.04c3.2-6.79,2.4-13.93,2.85-16.18c0.45-2.25,3.75-11.99,3.75-19.37c0-8.41-2.85-9.68-2.85-9.68 s4.73-3.15,5.48-7.06s-0.3-7.36-0.3-7.36s2.58-2.97,1.2-9.16c-1.2-5.4-6.23-6.31-6.23-6.31s-1.23-5.04-6.08-6.38 c-4.88-1.35-8.93,0.6-8.93,0.6s-0.68-2.33-4.2-2.55c-3.53-0.23-7.06,1.58-8.86,3.23c-2.43,2.22-4.95,7.36-4.95,7.36 s-4.8,3.53-4.2,9.16c0.6,5.63,3.38,7.58,5.33,8.71c1.95,1.13,3.68,0.68,6.08,1.35s3.15,3.3,4.43,3.15s1.89-5.15,0.75-8.63 c-1.05-3.23-4.2-6.76-4.2-6.76s1.73-0.45,3.9-1.65c1.39-0.76,3.75-2.85,3.75-2.85s0.96,1.29,3.38,2.4c3.9,1.8,8.33,0.6,8.33,0.6 s-1.05,0.98-0.9,3.08c0.12,1.63,0.98,3.68,0.98,3.68s-2.67,1.78-3.23,4.65c-0.6,3.08,1.13,6.91,1.13,6.91s-5.1-0.9-8.41,1.2 C64.8,39.95,61.58,53.59,58.58,57.49z" fill="#F2A159"/>
  <path d="M54.3,72.86c-0.06,1.6,0.75,3.72,3.38,3.8s3.6-1.74,3.53-3.33s-0.83-3.4-3.45-3.56 C55.88,69.66,54.38,70.88,54.3,72.86z" fill="#372D2B"/>
  <path d="M70.89,73.41c-2.56-0.1-3.68,2.06-3.6,3.72c0.08,1.66,1.05,3.17,3.23,3.33 c2.4,0.17,3.62-1.43,3.75-3.09C74.42,75.47,72.99,73.49,70.89,73.41z" fill="#372D2B"/>
  <path d="M55.28,79.75c-1.07,0.54-0.08,2.3,1.05,3.64c1.13,1.35,2.63,1.35,3.3,1.11 c0.68-0.24,1.73-0.87,1.73-0.87s0.84,2.45,3.55,2.67c2.3,0.18,3.5-0.92,4.18-1.48s1.35-1.9,0.53-2.45 c-0.83-0.55-1.83,0.54-2.18,1.11c-0.68,1.11-2.2,1.08-3,0.63c-1.28-0.71-1.13-2.93-1.2-3.64c-0.13-1.29-1.35-1.19-1.88-0.48 c-0.53,0.71-1.9,2.4-2.9,2.3C57.51,82.18,56.65,79.06,55.28,79.75z" fill="#372D2B"/>
  <path d="M51.75,65c0,0,3.6-3.53,8.93-4.88c3.17-0.8,9.71-1.19,14.71,1.73c7.36,4.28,9.46,11.71,9.46,11.71 s0.4-2.83,0-4.13s-3.33-7.11-10.06-10.13c-4.33-1.95-8.86-2.18-13.59-1.03c-2.73,0.66-5.76,2.63-7.06,3.73 C53.14,62.85,51.55,64.2,51.75,65z" fill="#BA8855"/>
  <path d="M59.46,55.87c0,0,6.21-4.45,13.91-3.65C80.47,52.95,86.96,62,86.96,62s0.43-1.43,0.38-2.13 c-0.05-0.7-1.31-2.66-2.18-3.58c-1.45-1.55-5.71-5.86-11.19-6.43c-6.26-0.65-12.36,2.45-13.06,3.05 C60.21,53.52,59.16,55.07,59.46,55.87z" fill="#BA8855"/>
  <path d="M63.01,47.74c0,0,5.15-3.38,9.01-3.53c3.56-0.14,6.79,0.57,9.11,1.8c5.08,2.7,7.41,7.51,7.41,7.51 s0.63-2.4-0.23-3.6c-0.37-0.52-3.9-7.88-13.99-7.91c-7.41-0.02-10.08,3.11-10.51,3.58C62.93,46.53,63.01,47.74,63.01,47.74z" fill="#BA8855"/>
  <path d="M77.47,31.45c0,0,2.22,1.86,3.8,2.35c2.55,0.8,6.31,1.53,5.76,3.28c-0.57,1.81-5.03,0.53-5.66,0.23 c-0.79-0.38-2.9-1.5-3.5-3C77.56,33.5,77.47,31.45,77.47,31.45z" fill="#B38354"/>
  <path d="M80.01,22.05c0,0,3.13,0.51,4.54,0.5c1.41-0.01,6-1.01,6.32,1.07c0.27,1.78-2.96,2.46-4.98,2.22 c-2.24-0.27-4.32-1.2-5.05-1.78C80.13,23.49,80.01,22.05,80.01,22.05z" fill="#B38354"/>
  <path d="M80.67,17.36c0.75-0.22,1.74-1.03,2.81-2.12c1.29-1.31,2.18-3.32,2.44-4.4 c0.26-1.08,0.1-2.51-1.01-2.99c-1.91-0.84-1.84,2.91-2.64,4.65c-0.81,1.73-2.41,3.69-2.56,4.4C79.58,17.56,80.2,17.5,80.67,17.36z" fill="#B38354"/>
  <path d="M71.27,3.37c1.79-0.24,2.4,1.8,1.65,5.05c-0.98,4.25-2.98,5.26-3.53,5.68 c-0.65,0.5-1.69,1.06-1.8,0.6c-0.25-1.05,1.3-2.58,1.95-5.18C70.19,6.92,69.37,3.62,71.27,3.37z" fill="#B38354"/>
  <path d="M62.63,17.78c0.55-0.58,0.3-4.5-3.13-6.71c-4.01-2.58-6.31-0.45-7.06,0.6 c-0.75,1.05-1.23,1.81-0.95,1.6c0.93-0.68,4.35-0.83,6.33,0.23c3.53,1.88,2.88,5.03,3.38,5.03S62.08,18.36,62.63,17.78z" fill="#B38354"/>
</svg>

<svg viewBox="0 0 128 128" xmlns="http://www.w3.org/2000/svg">
  <defs/>
  <path d="M73.52,51.41 C69.02,51.26 59.71,54.11 59.71,54.11 C59.71,54.11 57.31,47.88 55.51,46.08 C53.71,44.28 47.25,43.3 46.8,44.65 C46.35,46 51,47.5 52.81,50.21 C54.62,52.92 56.86,56.37 55.96,57.27 C55.06,58.17 53.78,56.07 49.65,53.67 C45.47,51.24 44.7,51.57 43.79,51.72 C42.89,51.87 36.66,55.7 34.41,56.3 C32.16,56.9 24.5,56.6 24.58,57.88 C24.64,58.94 28.89,60.58 32.69,60.43 C36.52,60.28 40.8,57.13 44.4,57.58 C48,58.03 51.76,61.78 50.56,62.53 C49.36,63.28 47.03,60.5 45.23,60.2 C43.43,59.9 38.4,62.83 35.7,63.13 C33,63.43 25.79,62.68 25.64,63.73 C25.49,64.78 30.14,66.73 35.4,66.58 C40.65,66.43 43.06,65 45.01,65.3 C46.96,65.6 49.96,69.73 49.96,69.73 L50.11,73.93 L47.11,74.23 C47.11,74.23 45.61,71.38 42.46,70.93 C39.31,70.48 37.36,71.68 37.36,71.68 C37.36,71.68 34.06,68.38 30.15,68.08 C26.25,67.78 21.74,69.28 20.54,71.23 C19.34,73.18 15.29,102.76 15.29,102.76 C15.29,102.76 24.45,115.9 25.35,116.2 C26.25,116.5 27.71,116.1 27.98,115.07 C28.36,113.64 26.25,109.82 25.95,107.26 C25.65,104.71 24.9,97.2 24.9,97.2 L21.3,86.39 L30.31,84.74 C30.31,84.74 33.22,84.8 34.96,84.29 C36.76,83.76 38.56,81.89 38.56,81.89 C38.56,81.89 41.26,84.44 44.72,85.34 C48.18,86.24 54,84.59 54,84.59 L66.76,87.89 C66.76,87.89 75.99,90.37 80.27,89.54 C82.56,89.1 84.32,88.04 84.32,88.04 C84.32,88.04 84.77,91.04 86.42,92.24 C88.07,93.44 86.87,112.66 86.87,112.66 C86.87,112.66 85.52,117.31 82.52,119.12 C79.52,120.92 75.33,123.24 75.76,124.68 C76.29,126.41 79.14,125.58 79.14,125.58 L93.48,118.97 L102.04,92.55 C102.04,92.55 102.79,87.15 99.49,83.84 C96.19,80.53 92.73,81.59 92.73,81.59 C92.73,81.59 92.65,80.31 92.2,79.71 C91.75,79.11 90.32,78.58 90.32,78.58 C90.32,78.58 94.82,76.33 95.8,76.18 C98.92,75.7 103.85,81.74 106.68,83.54 C109.53,85.34 115.8,88.65 115.39,86.09 C115.01,83.76 113.59,84.29 108.78,80.08 C103.97,75.87 98.87,70.02 97.22,69.87 C95.57,69.72 87.46,74.82 87.16,73.02 C86.86,71.22 89.04,69.64 91.06,67.46 C93.09,65.28 94.66,63.26 96.01,63.41 C97.36,63.56 102.02,68.36 104.12,69.72 C106.22,71.07 114.93,76.03 114.03,72.42 C113.48,70.23 109.83,70.32 105.17,65.81 C100.52,61.31 96.91,56.5 94.96,56.35 C93.01,56.2 86.78,64.01 86.78,64.01 C86.78,64.01 90.38,57.7 91.43,56.5 C92.48,55.3 94.36,52.9 94.36,52.9 C94.36,52.9 98.11,54.4 100.22,54.1 C102.32,53.8 105.17,52.9 105.17,51.85 C105.17,50.8 101.42,50.8 99.92,50.5 C98.42,50.2 94.67,48.1 93.76,48.1 C92.85,48.1 90.65,50.4 89.86,51.4 C88.73,52.83 84.38,57.63 84.38,57.63 L73.52,51.41 Z" fill="#BA8855"/>
  <path d="M29.38,72.08 C25.87,69 15.67,69.48 11.96,83.09 C8.25,96.7 12.61,105.21 16.46,110.26 C19.76,114.59 24.67,116.92 26.37,116.22 C27.74,115.66 22.57,109.41 21.37,106.41 C20.38,103.93 20.17,98.29 21.07,98.4 C22.67,98.6 25.97,106.51 29.38,108.61 C31.46,109.89 32.88,110.51 33.58,110.41 C34.63,110.26 31.68,104.6 29.08,100.1 C26.48,95.6 24.98,93.24 25.18,92.84 C25.38,92.44 30.17,87.46 30.89,86.23 C31.93,84.44 35.18,77.19 29.38,72.08 Z" fill="#F2A159"/>
  <path d="M38.99,73.41 C37.26,74.91 38.16,77.91 39.37,79.19 C40.58,80.47 43.05,82.12 44.55,80.77 C46.05,79.42 45.53,76.79 43.57,74.69 C42.19,73.21 40.13,72.41 38.99,73.41 Z" fill="#F2A159"/>
  <path d="M94.54,87.22 C90.05,86.85 86.88,89.4 85.23,94.35 C83.58,99.3 85,104.56 84.78,105.16 C84.55,105.76 80.74,108.33 79.22,109.36 C76.82,111.01 73.21,113.71 74.72,114.92 C77.08,116.81 81.58,115.09 83.28,114.47 C87.18,113.04 88.8,111.18 90.34,111.77 C93.49,112.97 88.61,118 86.29,119.65 C84.1,121.21 75.86,124.15 76.31,125.21 C76.76,126.26 78.94,126.19 81.41,125.89 C83.89,125.59 93.8,122.14 98.15,117.03 C102.13,112.36 103.71,106.07 103.4,100.36 C103.15,95.77 102.8,87.9 94.54,87.22 Z" fill="#F2A159"/>
  <path d="M84.85,80.32 C86.13,80.32 87.85,80.61 88.08,82.2 C88.38,84.3 86.05,85.2 84.78,85.2 C84.03,85.2 81.33,85.05 81.33,82.95 C81.33,80.84 83.58,80.32 84.85,80.32 Z" fill="#F2A159"/>
  <path d="M58.58,57.49 C57.03,59.5 48.81,67.14 47.54,73.33 C46.26,79.56 47.79,87.12 60.75,91.44 C71.73,95.1 79.9,89.19 82.15,84.4 C85.35,77.61 84.55,70.47 85,68.22 C85.45,65.97 88.75,56.23 88.75,48.85 C88.75,40.44 85.9,39.17 85.9,39.17 C85.9,39.17 90.63,36.02 91.38,32.11 C92.13,28.2 91.08,24.75 91.08,24.75 C91.08,24.75 93.66,21.78 92.28,15.59 C91.08,10.19 86.05,9.28 86.05,9.28 C86.05,9.28 84.82,4.24 79.97,2.9 C75.09,1.55 71.04,3.5 71.04,3.5 C71.04,3.5 70.36,1.17 66.84,0.95 C63.31,0.72 59.78,2.53 57.98,4.18 C55.55,6.4 53.03,11.54 53.03,11.54 C53.03,11.54 48.23,15.07 48.83,20.7 C49.43,26.33 52.21,28.28 54.16,29.41 C56.11,30.54 57.84,30.09 60.24,30.76 C62.64,31.43 63.39,34.06 64.67,33.91 C65.95,33.76 66.56,28.76 65.42,25.28 C64.37,22.05 61.22,18.52 61.22,18.52 C61.22,18.52 62.95,18.07 65.12,16.87 C66.51,16.11 68.87,14.02 68.87,14.02 C68.87,14.02 69.83,15.31 72.25,16.42 C76.15,18.22 80.58,17.02 80.58,17.02 C80.58,17.02 79.53,18 79.68,20.1 C79.8,21.73 80.66,23.78 80.66,23.78 C80.66,23.78 77.99,25.56 77.43,28.43 C76.83,31.51 78.56,35.34 78.56,35.34 C78.56,35.34 73.46,34.44 70.15,36.54 C64.8,39.95 61.58,53.59 58.58,57.49 Z" fill="#F2A159"/>
  <path d="M54.3,72.86 C54.24,74.46 55.05,76.58 57.68,76.66 C60.31,76.74 61.28,74.92 61.21,73.33 C61.14,71.74 60.38,69.93 57.76,69.77 C55.88,69.66 54.38,70.88 54.3,72.86 Z" fill="#372D2B"/>
  <path d="M70.89,73.41 C68.33,73.31 67.21,75.47 67.29,77.13 C67.37,78.79 68.34,80.3 70.52,80.46 C72.92,80.63 74.14,79.03 74.27,77.37 C74.42,75.47 72.99,73.49 70.89,73.41 Z" fill="#372D2B"/>
  <path d="M55.28,79.75 C54.21,80.29 55.2,82.05 56.33,83.39 C57.46,84.74 58.96,84.74 59.63,84.5 C60.31,84.26 61.36,83.63 61.36,83.63 C61.36,83.63 62.2,86.08 64.91,86.3 C67.21,86.48 68.41,85.38 69.09,84.82 C69.77,84.26 70.44,82.92 69.62,82.37 C68.79,81.82 67.79,82.91 67.44,83.48 C66.76,84.59 65.24,84.56 64.44,84.11 C63.16,83.4 63.31,81.18 63.24,80.47 C63.11,79.18 61.89,79.28 61.36,79.99 C60.83,80.7 59.46,82.39 58.46,82.29 C57.51,82.18 56.65,79.06 55.28,79.75 Z" fill="#372D2B"/>
  <path d="M51.75,65 C51.75,65 55.35,61.47 60.68,60.12 C63.85,59.32 70.39,58.93 75.39,61.85 C82.75,66.13 84.85,73.56 84.85,73.56 C84.85,73.56 85.25,70.73 84.85,69.43 C84.45,68.13 81.52,62.32 74.79,59.3 C70.46,57.35 65.93,57.12 61.2,58.27 C58.47,58.93 55.44,60.9 54.14,62 C53.14,62.85 51.55,64.2 51.75,65 Z" fill="#BA8855"/>
  <path d="M59.46,55.87 C59.46,55.87 65.67,51.42 73.37,52.22 C80.47,52.95 86.96,62 86.96,62 C86.96,62 87.39,60.57 87.34,59.87 C87.29,59.17 86.03,57.21 85.16,56.29 C83.71,54.74 79.45,50.43 73.97,49.86 C67.71,49.21 61.61,52.31 60.91,52.91 C60.21,53.52 59.16,55.07 59.46,55.87 Z" fill="#BA8855"/>
  <path d="M63.01,47.74 C63.01,47.74 68.16,44.36 72.02,44.21 C75.58,44.07 78.81,44.78 81.13,46.01 C86.21,48.71 88.54,53.52 88.54,53.52 C88.54,53.52 89.17,51.12 88.31,49.92 C87.94,49.4 84.41,42.04 74.32,42.01 C66.91,41.99 64.24,45.12 63.81,45.59 C62.93,46.53 63.01,47.74 63.01,47.74 Z" fill="#BA8855"/>
  <path d="M77.47,31.45 C77.47,31.45 79.69,33.31 81.27,33.8 C83.82,34.6 87.58,35.33 87.03,37.08 C86.46,38.89 82,37.61 81.37,37.31 C80.58,36.93 78.47,35.81 77.87,34.31 C77.56,33.5 77.47,31.45 77.47,31.45 Z" fill="#B38354"/>
  <path d="M80.01,22.05 C80.01,22.05 83.14,22.56 84.55,22.55 C85.96,22.54 90.55,21.54 90.87,23.62 C91.14,25.4 87.91,26.08 85.89,25.84 C83.65,25.57 81.57,24.64 80.84,24.06 C80.13,23.49 80.01,22.05 80.01,22.05 Z" fill="#B38354"/>
  <path d="M80.67,17.36 C81.42,17.14 82.41,16.33 83.48,15.24 C84.77,13.93 85.66,11.92 85.92,10.84 C86.18,9.76 86.02,8.33 84.91,7.85 C83,7.01 83.07,10.76 82.27,12.5 C81.46,14.23 79.86,16.19 79.71,16.9 C79.58,17.56 80.2,17.5 80.67,17.36 Z" fill="#B38354"/>
  <path d="M71.27,3.37 C73.06,3.13 73.67,5.17 72.92,8.42 C71.94,12.67 69.94,13.68 69.39,14.1 C68.74,14.6 67.7,15.16 67.59,14.7 C67.34,13.65 68.89,12.12 69.54,9.52 C70.19,6.92 69.37,3.62 71.27,3.37 Z" fill="#B38354"/>
  <path d="M62.63,17.78 C63.18,17.2 62.93,13.28 59.5,11.07 C55.49,8.49 53.19,10.62 52.44,11.67 C51.69,12.72 51.21,13.48 51.49,13.27 C52.42,12.59 55.84,12.44 57.82,13.5 C61.35,15.38 60.7,18.53 61.2,18.53 C61.7,18.53 62.08,18.36 62.63,17.78 Z" fill="#B38354"/>
</svg>
